ex_app/img/app.svg

<svg viewBox="0 0 24 24" height="24" width="24" xmlns="http://www.w3.org/2000/svg" xml:space="preserve" style="fill-rule:evenodd;clip-rule:evenodd;stroke-linejoin:round;stroke-miterlimit:2"><path d="M11 20v-7.6l-5-5V10H4V4h6v2H7.4l5.6 5.6V20h-2Zm3.85-9.4L13.4 9.15 16.6 6H14V4h6v6h-2V7.4l-3.15 3.2Z" style="fill:#fff" transform="rotate(90 15 12) scale(1.25)"/></svg>

<?xml version="1.0" encoding="UTF-8" standalone="no"?>
<!DOCTYPE svg PUBLIC "-//W3C//DTD SVG 1.1//EN" "http://www.w3.org/Graphics/SVG/1.1/DTD/svg11.dtd">
<svg width="100%" height="100%" viewBox="0 0 24 24" version="1.1" xmlns="http://www.w3.org/2000/svg" xmlns:xlink="http://www.w3.org/1999/xlink" xml:space="preserve" xmlns:serif="http://www.serif.com/" style="fill-rule:evenodd;clip-rule:evenodd;stroke-linejoin:round;stroke-miterlimit:2;">
    <g transform="matrix(1.38778e-16,1.25,-1.25,1.38778e-16,27,-3)">
        <path d="M11,20L11,12.4L6,7.4L6,10L4,10L4,4L10,4L10,6L7.4,6L13,11.6L13,20L11,20ZM14.85,10.6L13.4,9.15L16.6,6L14,6L14,4L20,4L20,10L18,10L18,7.4L14.85,10.6Z" style="fill:white;"/>
    </g>
</svg>
